arkscan/icons/lbank.svg

<svg width="200" height="200" viewBox="0 0 200 200" fill="none" xmlns="http://www.w3.org/2000/svg">
<path fill-rule="evenodd" clip-rule="evenodd" d="M23.3058 193.451C22 190.883 22 187.522 22 180.799V19.2006C22 12.4797 22 9.11933 23.3054 6.55229C24.4533 4.29429 26.2858 2.45847 28.5392 1.30796C31.1008 0 34.4546 0 41.1617 0H103.837C120.543 0 128.897 0 135.75 1.84006C154.348 6.83341 168.874 21.3894 173.858 40.0249C175.694 46.892 175.694 55.2616 175.694 72.0012C175.694 82.8999 170.769 86.8899 166.568 90.292C163.446 92.8208 160.724 95.0253 160.724 99.5028C160.724 103.914 163.895 106.12 167.572 108.677C172.648 112.206 178.688 116.406 178.688 128.004C178.688 144.714 178.688 153.069 176.858 159.925C171.88 178.573 157.347 193.141 138.737 198.135C131.895 199.971 123.557 199.974 106.881 199.979L41.1679 200C34.4587 200.002 31.1042 200.003 28.5417 198.695C26.2875 197.545 24.4546 195.709 23.3058 193.451ZM111.333 65.5816C115.094 59.667 118.35 54.5475 118.35 48.0012C118.35 34.7462 107.604 24.0007 94.3487 24.0007C81.0937 24.0007 70.3479 35.251 70.3479 48.0012C70.3479 54.5475 73.6925 59.667 77.5562 65.5816C82.8412 73.6716 89.0983 83.2499 89.0983 100.003C89.0983 116.756 82.8412 126.334 77.5562 134.424C73.6925 140.339 70.3479 145.458 70.3479 152.004C70.3483 165.259 81.0937 176.005 94.3487 176.005C107.604 176.005 118.35 165.259 118.35 152.004C118.35 145.458 115.094 140.339 111.333 134.424C106.189 126.334 100.099 116.756 100.099 100.003C100.099 83.2499 106.189 73.6716 111.333 65.5816Z" fill="#FFDA16"/>
</svg>

<svg width="200" height="200" fill="none" xmlns="http://www.w3.org/2000/svg"><path fill-rule="evenodd" clip-rule="evenodd" d="M23.306 193.451C22 190.883 22 187.522 22 180.799V19.201c0-6.721 0-10.082 1.305-12.649a11.987 11.987 0 0 1 5.234-5.244C31.101 0 34.455 0 41.162 0h62.675c16.706 0 25.06 0 31.913 1.84 18.598 4.993 33.124 19.55 38.108 38.185 1.836 6.867 1.836 15.237 1.836 31.976 0 10.899-4.925 14.889-9.126 18.291-3.122 2.529-5.844 4.733-5.844 9.21 0 4.412 3.171 6.618 6.848 9.175 5.076 3.529 11.116 7.729 11.116 19.327 0 16.71 0 25.065-1.83 31.921-4.978 18.648-19.511 33.216-38.121 38.21-6.842 1.836-15.18 1.839-31.856 1.844L41.168 200c-6.71.002-10.064.003-12.626-1.305a11.989 11.989 0 0 1-5.236-5.244Zm88.027-127.87c3.761-5.914 7.017-11.034 7.017-17.58 0-13.255-10.746-24-24.001-24S70.348 35.25 70.348 48c0 6.547 3.344 11.666 7.208 17.58 5.285 8.09 11.542 17.669 11.542 34.422 0 16.753-6.257 26.331-11.542 34.421-3.864 5.915-7.208 11.034-7.208 17.58 0 13.255 10.746 24.001 24 24.001 13.256 0 24.002-10.746 24.002-24.001 0-6.546-3.256-11.665-7.017-17.58-5.144-8.09-11.234-17.668-11.234-34.421s6.09-26.331 11.234-34.421Z" fill="#FFDA16"/></svg>
